src/assets/images/spider.svg

<svg fill="none" height="40" viewBox="0 0 40 40" width="40" xmlns="http://www.w3.org/2000/svg"><g stroke-linecap="round"><g stroke="#006a97"><path d="m19.3198 17.0484c-4.0184.4151-7.234 3.7556-6.8005 7.9683.4341 4.2182 3.7866 6.4741 9.5052 5.8931 3.1247-.3175 6.0963-2.739 5.9504-6.9722-.1546-4.4821-4.1927-7.35-8.6551-6.8892z" fill="#006a97" stroke-width="1.43293"/><path d="m19.423 7.05882c-4.6666.50396-8.4008 4.56028-7.8974 9.67568.5041 5.1222 4.3974 7.8615 11.0383 7.156 3.6287-.3855 7.0797-3.326 6.9101-8.4662-.1794-5.44258-4.8689-8.92511-10.051-8.36548z" fill="#006a97" stroke-width="1.74318"/><path d="m7.43531 8.14595c.3507 3.02665 2.20366 6.41545 4.33329 8.60455" stroke-width="1.68638"/><path d="m6.22741 13.3284c.70526 2.2907 3.68392 6.4247 6.54769 6.2417" stroke-width="1.68638"/><path d="m12.0043 21.8163c-1.5183.6652-4.13966 3.4469-4.60867 5.1972" stroke-width="1.68638"/><path d="m12.8169 23.5191c-1.0852 1.0492-2.1598 3.2618-2.5233 4.416-.50686 1.6097-.62018 2.6817-.67736 4.3746" stroke-width="1.68638"/><path d="m33.5697 8.08888c-.2097 3.03962-1.9032 6.51092-3.9289 8.79662" stroke-width="1.68638"/><path d="m35.0169 13.2106c-.598 2.321-3.3814 6.589-6.2506 6.5392" stroke-width="1.68638"/><path d="m28.2931 21.8163c1.5182.6652 4.1396 3.4469 4.6086 5.1972" stroke-width="1.68638"/><path d="m27.4805 23.5191c1.0851 1.0492 2.1598 3.2618 2.5232 4.416.5069 1.6097.6202 2.6817.6774 4.3746" stroke-width="1.68638"/></g><path d="m17.2448 25.0139c-1.037.1186-1.8669 1.073-1.755 2.2766.112 1.2052.9772 1.8498 2.453 1.6838.8063-.0908 1.5732-.7826 1.5355-1.9921-.0398-1.2806-1.0819-2.1-2.2335-1.9683z" stroke="#d9d9d9" stroke-width="2.5"/><path d="m22.5768 25.0139c-1.037.1186-1.8668 1.073-1.755 2.2766.1121 1.2052.9772 1.8498 2.453 1.6838.8064-.0908 1.5732-.7826 1.5356-1.9921-.0399-1.2806-1.082-2.1-2.2336-1.9683z" stroke="#d9d9d9" stroke-width="2.5"/></g></svg>

<svg width="40" height="40" viewBox="0 0 40 40" fill="none" xmlns="http://www.w3.org/2000/svg">
<path d="M19.3198 17.0484C15.3014 17.4635 12.0858 20.804 12.5193 25.0167C12.9534 29.2349 16.3059 31.4908 22.0245 30.9098C25.1492 30.5923 28.1208 28.1708 27.9749 23.9376C27.8203 19.4555 23.7822 16.5876 19.3198 17.0484Z" fill="#006A97" stroke="#006A97" stroke-width="1.43293" stroke-linecap="round"/>
<path d="M19.423 7.05882C14.7564 7.56278 11.0222 11.6191 11.5256 16.7345C12.0297 21.8567 15.923 24.596 22.5639 23.8905C26.1926 23.505 29.6436 20.5645 29.474 15.4243C29.2946 9.98172 24.6051 6.49919 19.423 7.05882Z" fill="#006A97" stroke="#006A97" stroke-width="1.74318" stroke-linecap="round"/>
<path d="M7.43531 8.14595C7.78601 11.1726 9.63897 14.5614 11.7686 16.7505" stroke="#006A97" stroke-width="1.68638" stroke-linecap="round"/>
<path d="M6.22741 13.3284C6.93267 15.6191 9.91133 19.7531 12.7751 19.5701" stroke="#006A97" stroke-width="1.68638" stroke-linecap="round"/>
<path d="M12.0043 21.8163C10.486 22.4815 7.86464 25.2632 7.39563 27.0135" stroke="#006A97" stroke-width="1.68638" stroke-linecap="round"/>
<path d="M12.8169 23.5191C11.7317 24.5683 10.6571 26.7809 10.2936 27.9351C9.78674 29.5448 9.67342 30.6168 9.61624 32.3097" stroke="#006A97" stroke-width="1.68638" stroke-linecap="round"/>
<path d="M33.5697 8.08888C33.36 11.1285 31.6665 14.5998 29.6408 16.8855" stroke="#006A97" stroke-width="1.68638" stroke-linecap="round"/>
<path d="M35.0169 13.2106C34.4189 15.5316 31.6355 19.7996 28.7663 19.7498" stroke="#006A97" stroke-width="1.68638" stroke-linecap="round"/>
<path d="M28.2931 21.8163C29.8113 22.4815 32.4327 25.2632 32.9017 27.0135" stroke="#006A97" stroke-width="1.68638" stroke-linecap="round"/>
<path d="M27.4805 23.5191C28.5656 24.5683 29.6403 26.7809 30.0037 27.9351C30.5106 29.5448 30.6239 30.6168 30.6811 32.3097" stroke="#006A97" stroke-width="1.68638" stroke-linecap="round"/>
<path d="M17.2448 25.0139C16.2078 25.1325 15.3779 26.0869 15.4898 27.2905C15.6018 28.4957 16.467 29.1403 17.9428 28.9743C18.7491 28.8835 19.516 28.1917 19.4783 26.9822C19.4385 25.7016 18.3964 24.8822 17.2448 25.0139Z" stroke="#D9D9D9" stroke-width="2.5" stroke-linecap="round"/>
<path d="M22.5768 25.0139C21.5398 25.1325 20.71 26.0869 20.8218 27.2905C20.9339 28.4957 21.799 29.1403 23.2748 28.9743C24.0812 28.8835 24.848 28.1917 24.8104 26.9822C24.7705 25.7016 23.7284 24.8822 22.5768 25.0139Z" stroke="#D9D9D9" stroke-width="2.5" stroke-linecap="round"/>
</svg>
